X:2956
L:1/8
M:2/2
K:C
 a2 ea aged | cAcd e2 (AB | d2) [df]2 [de][de][df][df] | [df]ded d2 g2- | gage dBd(A | 
 B)dBA G3 ([_E-B] | [Ec])cAG ag e2 |1 c4 c4 :|2 c4 c2 || !slide![AA]2- | 
 [AA]2 [AA][AA] [AA][AA][AA][AA] | A f2 (d [ee]2) [ee]2 | d2 d4 d2 | eded- d^c =c2 | 
 B g2 a g2 (_B2 | =B)Bga g2 c2- | c2 c'2 b2 a2 | g6 !slide![AA]2- | 
 [AA]2 [AA][AA] [AA][AA][AA][AA] | A f2 (d [ee]2) [ee]2 | d2 d4 d2 | eded- d^c =c2 | 
 B g2 a g2 (_B2 | =B)Bga g2 !slide![ee]2- | [ee]([de-][ee])d c2 A2 | [Ec]6 ||

